Catalina-light/actions/22/entry-delete.svg

<svg width="22" height="22" version="1.1" xmlns="http://www.w3.org/2000/svg">
<g transform="translate(-550.29 -608.65)">
<g transform="matrix(.67604 0 0 .67604 290.48 260.13)" fill="#4d4d4d">
<circle cx="389.57" cy="-509.56" r="0"/>
<g transform="matrix(2.0534 0 0 2.0534 384.2 -1613)">
<g transform="translate(-401.01 510.63)" fill="#4d4d4d">
<g transform="translate(5.0558 -5.2511)" fill="#4d4d4d">
<g transform="translate(-11.317 5.8825)" fill="#4d4d4d" stroke="#000" stroke-opacity=".8">
<g transform="translate(1.8733 -.28411)" fill="#4d4d4d">
<g transform="translate(-2.0519 -.97859)" fill="#4d4d4d">
<g transform="translate(.22097 .44194)" fill="#4d4d4d">
<g transform="translate(1.3574 -1.2627)" fill="#4d4d4d">
<g transform="translate(-.41037 -.59978)" fill="#4d4d4d">
<g transform="matrix(.78637 0 0 .78395 92.594 111.88)" fill="#4d4d4d">
<g transform="matrix(1.2717 0 0 1.2756 -114.26 -140.42)" fill="#4d4d4d">
<g transform="matrix(.78637 0 0 .78395 93.326 112.35)" fill="#4d4d4d">
<g transform="matrix(1.2717 0 0 1.2756 -124.34 -145.65)" fill="#4d4d4d">
<g transform="translate(2.9673 4.7351)" fill="#4d4d4d">
<g transform="translate(.031567 -1.894)" fill="#4d4d4d">
<g transform="translate(-1.3574 -.63135)" fill="#4d4d4d">
<g transform="translate(9.3755 2.3044)" fill="#4d4d4d">
<g transform="translate(-8.1444 -1.9572)" fill="#4d4d4d">
<g transform="translate(-1.0417 .94702)" fill="#4d4d4d">
<g transform="matrix(.78637 0 0 .78395 93.026 111.85)" fill="#4d4d4d">
<g transform="matrix(-.011937 0 0 .011973 449.07 560.74)" fill="#4d4d4d" stroke="none">
<g transform="matrix(-7.0733 0 0 7.0018 2712.2 -7878.3)" fill="#4d4d4d">
<g transform="matrix(-.14381 0 0 .14528 389.34 1124.4)" fill="#4d4d4d">
<g transform="matrix(-7.0733 0 0 7.0018 2712.2 -7878.3)" fill="#4d4d4d">
<g transform="matrix(.1177 0 0 .1177 -131.57 724.01)" fill="#4d4d4d">
<g transform="matrix(2.4024 0 0 2.4906 -437.81 236.72)" fill="#4d4d4d">
<g fill="#4d4d4d">
<path d="m3.18 201.69 38.31 29.933-36.057 69.073c-18.028 31.851 12.943 62.878 32.676 73.679 19.426 10.632 49.577 11.896 77.746 11.513l50.704-82.889 38.31 20.722-66.479-123.18-135.21 1.15zm5.633 169.09 82.253 151.96c16.526 21.105 47.7 26.094 80 25.327h86.76v-143.9l-164.51-1.151c-25.539 1.533-58.967-3.839-84.507-32.235zm517.5-280.05-44.752 18.995-42.933-65.022c-19.116-31.209-61.27-19.164-80.282-7.141-18.716 11.836-34.44 37.594-47.761 62.417l47.914 84.532-36.697 23.46 139.97 1.576 64.545-118.82zm-150.62-77.046-172.79-1.732c-26.471 4.221-45.948 29.067-60.936 57.691l-42.062 75.882 125.86 69.766 80.761-143.32c11.039-23.083 31.944-49.714 69.162-58.284zm7.516 586.36 5.082-48.351 77.685-6.025c36.563-1.59 46.465-44.297 45.167-66.755-1.277-22.108-16.184-48.348-31.437-72.033l-97.162 0.925-2.729-43.47-69.235 121.65 72.629 114.06zm140.41-94.379 85.283-150.28c9.142-25.199-3.146-54.28-20.915-81.266l-45.976-73.577-122.04 76.257 86.199 140.12c14.837 20.845 27.994 52.039 17.446 88.747z" fill="#4d4d4d"/>
</g>
</g>
</g>
</g>
</g>
</g>
</g>
</g>
</g>
</g>
</g>
</g>
</g>
</g>
</g>
</g>
</g>
</g>
</g>
</g>
</g>
</g>
</g>
</g>
</g>
</g>
</g>
</g>
</g>
</svg>

<?xml version="1.0" encoding="UTF-8" standalone="no"?>
<!-- Created with Inkscape (http://www.inkscape.org/) -->

<svg
   xmlns:dc="http://purl.org/dc/elements/1.1/"
   xmlns:cc="http://creativecommons.org/ns#"
   xmlns:rdf="http://www.w3.org/1999/02/22-rdf-syntax-ns#"
   xmlns:svg="http://www.w3.org/2000/svg"
   xmlns="http://www.w3.org/2000/svg"
   xmlns:xlink="http://www.w3.org/1999/xlink"
   xmlns:sodipodi="http://sodipodi.sourceforge.net/DTD/sodipodi-0.dtd"
   xmlns:inkscape="http://www.inkscape.org/namespaces/inkscape"
   width="22"
   height="22"
   id="svg3760"
   version="1.1"
   inkscape:version="0.91 r13725"
   sodipodi:docname="entry-delete.svg">
  <defs
     id="defs3762">
    <linearGradient
       id="linearGradient4324">
      <stop
         id="stop4326"
         offset="0"
         style="stop-color:#f62459;stop-opacity:1" />
      <stop
         id="stop4328"
         offset="1"
         style="stop-color:#f8567f;stop-opacity:1" />
    </linearGradient>
    <linearGradient
       id="linearGradient4300-8"
       inkscape:collect="always">
      <stop
         id="stop4302-5"
         offset="0"
         style="stop-color:#f27935;stop-opacity:1" />
      <stop
         id="stop4304-7"
         offset="1"
         style="stop-color:#f2784b;stop-opacity:1" />
    </linearGradient>
    <linearGradient
       inkscape:collect="always"
       xlink:href="#linearGradient4351"
       id="linearGradient4357"
       x1="47"
       y1="61"
       x2="47"
       y2="47"
       gradientUnits="userSpaceOnUse" />
    <linearGradient
       inkscape:collect="always"
       id="linearGradient4410">
      <stop
         style="stop-color:#383e51;stop-opacity:1"
         offset="0"
         id="stop4412" />
      <stop
         style="stop-color:#655c6f;stop-opacity:0"
         offset="1"
         id="stop4414" />
    </linearGradient>
    <linearGradient
       gradientTransform="matrix(1,0,0,-1,-14,78)"
       inkscape:collect="always"
       xlink:href="#linearGradient4410"
       id="linearGradient4427"
       x1="54"
       y1="31"
       x2="40"
       y2="17"
       gradientUnits="userSpaceOnUse" />
    <linearGradient
       inkscape:collect="always"
       xlink:href="#linearGradient4300-8"
       id="linearGradient4306"
       x1="32"
       y1="61"
       x2="32"
       y2="3"
       gradientUnits="userSpaceOnUse" />
    <linearGradient
       inkscape:collect="always"
       id="linearGradient4351">
      <stop
         style="stop-color:#f7ab89;stop-opacity:1"
         offset="0"
         id="stop4353" />
      <stop
         style="stop-color:#f9bda3;stop-opacity:1"
         offset="1"
         id="stop4355" />
    </linearGradient>
    <linearGradient
       y2="17"
       x2="40"
       y1="31"
       x1="54"
       gradientTransform="matrix(1,0,0,-1,503.93261,656.69754)"
       gradientUnits="userSpaceOnUse"
       id="linearGradient3444"
       xlink:href="#linearGradient4410"
       inkscape:collect="always" />
    <linearGradient
       gradientTransform="translate(517.93261,578.69754)"
       y2="47"
       x2="47"
       y1="61"
       x1="47"
       gradientUnits="userSpaceOnUse"
       id="linearGradient3447"
       xlink:href="#linearGradient4351"
       inkscape:collect="always" />
    <linearGradient
       gradientTransform="translate(517.93261,578.69754)"
       y2="3"
       x2="32"
       y1="61"
       x1="32"
       gradientUnits="userSpaceOnUse"
       id="linearGradient3452"
       xlink:href="#linearGradient4300-8"
       inkscape:collect="always" />
    <clipPath
       id="clipPath16"
       clipPathUnits="userSpaceOnUse">
      <path
         id="path18"
         d="m 0,706.465 1490.926,0 L 1490.926,0 0,0 0,706.465 Z"
         inkscape:connector-curvature="0" />
    </clipPath>
    <clipPath
       id="clipPath24"
       clipPathUnits="userSpaceOnUse">
      <path
         id="path26"
         d="m 22.1953,686.117 1447.7347,0 0,-667.1902 -1447.7347,0 0,667.1902 z"
         inkscape:connector-curvature="0" />
    </clipPath>
  </defs>
  <sodipodi:namedview
     id="base"
     pagecolor="#ffffff"
     bordercolor="#666666"
     borderopacity="1.0"
     inkscape:pageopacity="0.0"
     inkscape:pageshadow="2"
     inkscape:zoom="11.313709"
     inkscape:cx="-23.536449"
     inkscape:cy="6.8599867"
     inkscape:document-units="px"
     inkscape:current-layer="layer1"
     showgrid="true"
     fit-margin-top="0"
     fit-margin-left="0"
     fit-margin-right="0"
     fit-margin-bottom="0"
     inkscape:window-width="1366"
     inkscape:window-height="630"
     inkscape:window-x="0"
     inkscape:window-y="36"
     inkscape:window-maximized="1"
     inkscape:showpageshadow="false">
    <sodipodi:guide
       position="-1.4433594e-05,24.000012"
       orientation="24,0"
       id="guide4115" />
    <sodipodi:guide
       position="-1.4433594e-05,1.1816406e-05"
       orientation="0,24"
       id="guide4117" />
    <sodipodi:guide
       position="23.999986,1.1816406e-05"
       orientation="-24,0"
       id="guide4119" />
    <sodipodi:guide
       position="23.999986,24.000012"
       orientation="0,-24"
       id="guide4121" />
    <sodipodi:guide
       position="2.9999856,21.000012"
       orientation="18,0"
       id="guide4123" />
    <sodipodi:guide
       position="2.9999856,3.0000118"
       orientation="0,18"
       id="guide4125" />
    <sodipodi:guide
       position="20.999986,3.0000118"
       orientation="-18,0"
       id="guide4127" />
    <sodipodi:guide
       position="20.999986,21.000012"
       orientation="0,-18"
       id="guide4129" />
    <sodipodi:guide
       position="3.9999856,20.000012"
       orientation="16,0"
       id="guide4131" />
    <sodipodi:guide
       position="3.9999856,4.0000118"
       orientation="0,16"
       id="guide4133" />
    <sodipodi:guide
       position="19.999986,4.0000118"
       orientation="-16,0"
       id="guide4135" />
    <sodipodi:guide
       position="19.999986,20.000012"
       orientation="0,-16"
       id="guide4137" />
    <inkscape:grid
       type="xygrid"
       id="grid4139" />
    <sodipodi:guide
       position="5.9999856,18.000012"
       orientation="12,0"
       id="guide4207" />
    <sodipodi:guide
       position="5.9999856,6.0000118"
       orientation="0,12"
       id="guide4209" />
    <sodipodi:guide
       position="17.999986,6.0000118"
       orientation="-12,0"
       id="guide4211" />
    <sodipodi:guide
       position="17.999986,18.000012"
       orientation="0,-12"
       id="guide4213" />
  </sodipodi:namedview>
  <metadata
     id="metadata3765">
    <rdf:RDF>
      <cc:Work
         rdf:about="">
        <dc:format>image/svg+xml</dc:format>
        <dc:type
           rdf:resource="http://purl.org/dc/dcmitype/StillImage" />
        <dc:title></dc:title>
      </cc:Work>
    </rdf:RDF>
  </metadata>
  <g
     inkscape:label="Capa 1"
     inkscape:groupmode="layer"
     id="layer1"
     transform="translate(-550.28572,-608.6479)">
    <g
       transform="matrix(0.67604148,0,0,0.67604148,290.48281,260.13037)"
       id="layer1-5"
       inkscape:label="Capa 1"
       style="fill:#4d4d4d;fill-opacity:1">
      <circle
         id="circle16"
         cx="389.57144"
         cy="-509.56406"
         r="0"
         style="fill:#4d4d4d;fill-opacity:1" />
      <g
         style="fill:#4d4d4d;fill-opacity:1"
         inkscape:label="Capa 1"
         id="layer1-19"
         transform="matrix(2.0534325,0,0,2.0534325,384.20173,-1612.976)">
        <g
           transform="matrix(0.90537551,0,0,0.90537551,-365.91682,562.06022)"
           id="layer1-0"
           inkscape:label="Capa 1"
           style="fill:#4d4d4d;fill-opacity:1;stroke:#4f96d1;stroke-opacity:1" />
        <g
           style="fill:#4d4d4d;fill-opacity:1"
           transform="translate(-401.01229,510.63371)"
           id="layer1-00"
           inkscape:label="Capa 1">
          <g
             style="fill:#4d4d4d;fill-opacity:1"
             transform="translate(5.05585,-5.251147)"
             id="layer1-4"
             inkscape:label="Capa 1">
            <g
               transform="translate(-11.317,5.8824915)"
               id="layer1-9"
               inkscape:label="Capa 1"
               style="fill:#4d4d4d;fill-opacity:1;stroke:#000000;stroke-opacity:0.8">
              <g
                 style="fill:#4d4d4d;fill-opacity:1"
                 transform="translate(1.8733025,-0.28410538)"
                 id="layer1-79"
                 inkscape:label="Capa 1">
                <g
                   style="fill:#4d4d4d;fill-opacity:1"
                   transform="translate(-2.0518724,-0.97858527)"
                   id="layer1-2"
                   inkscape:label="Capa 1">
                  <g
                     style="fill:#4d4d4d;fill-opacity:1"
                     transform="translate(0.22097092,0.44194173)"
                     id="layer1-26"
                     inkscape:label="Capa 1">
                    <g
                       style="fill:#4d4d4d;fill-opacity:1"
                       transform="translate(1.3573925,-1.2626907)"
                       id="layer1-46"
                       inkscape:label="Capa 1">
                      <g
                         style="fill:#4d4d4d;fill-opacity:1"
                         transform="translate(-0.41037448,-0.59977801)"
                         id="layer1-21"
                         inkscape:label="Capa 1">
                        <g
                           style="fill:#4d4d4d;fill-opacity:1"
                           transform="matrix(0.7863692,0,0,0.78394543,92.594038,111.881)"
                           id="g4187">
                          <g
                             style="fill:#4d4d4d;fill-opacity:1"
                             transform="matrix(1.2716673,0,0,1.275599,-114.25636,-140.42007)"
                             id="layer1-3"
                             inkscape:label="Capa 1">
                            <g
                               style="fill:#4d4d4d;fill-opacity:1"
                               transform="matrix(0.7863692,0,0,0.78394543,93.325829,112.35451)"
                               id="g4187-5">
                              <g
                                 style="fill:#4d4d4d;fill-opacity:1"
                                 transform="matrix(1.2716673,0,0,1.275599,-124.33958,-145.6548)"
                                 id="layer1-73"
                                 inkscape:label="Capa 1">
                                <g
                                   style="fill:#4d4d4d;fill-opacity:1"
                                   transform="translate(2.9673242,4.7350927)"
                                   id="layer1-8-2"
                                   inkscape:label="Capa 1">
                                <g
                                   style="fill:#4d4d4d;fill-opacity:1"
                                   transform="translate(0.03156729,-1.894036)"
                                   id="layer1-25"
                                   inkscape:label="Capa 1">
                                <g
                                   style="fill:#4d4d4d;fill-opacity:1"
                                   transform="translate(-1.3573925,-0.63134534)"
                                   id="layer1-84"
                                   inkscape:label="Capa 1">
                                <g
                                   style="fill:#4d4d4d;fill-opacity:1"
                                   transform="translate(9.3754783,2.3044104)"
                                   id="layer1-842"
                                   inkscape:label="Capa 1">
                                <g
                                   style="fill:#4d4d4d;fill-opacity:1"
                                   transform="translate(-8.1443549,-1.9571705)"
                                   id="layer1-41"
                                   inkscape:label="Capa 1">
                                <g
                                   style="fill:#4d4d4d;fill-opacity:1"
                                   transform="translate(-1.0417198,0.94701802)"
                                   id="layer1-1"
                                   inkscape:label="Capa 1">
                                <g
                                   style="fill:#4d4d4d;fill-opacity:1"
                                   transform="matrix(0.7863692,0,0,0.78394543,93.025863,111.8545)"
                                   id="g4187-3">
                                <g
                                   style="fill:#4d4d4d;fill-opacity:1;stroke:none"
                                   transform="matrix(-0.01193654,0,0,0.01197345,449.06584,560.73694)"
                                   id="g10822-9-7-90">
                                <g
                                   style="display:inline;fill:#4d4d4d;fill-opacity:1;stroke:none"
                                   id="g5043-5"
                                   transform="matrix(-7.0732846,0,0,7.0017718,2712.2317,-7878.2911)">
                                <g
                                   style="fill:#4d4d4d;fill-opacity:1;stroke:none"
                                   transform="matrix(-0.14381169,0,0,0.14528056,389.34052,1124.3804)"
                                   id="g10822-9-7-8">
                                <g
                                   style="fill:#4d4d4d;fill-opacity:1;stroke:none"
                                   id="g5043-7"
                                   transform="matrix(-7.0732846,0,0,7.0017718,2712.2317,-7878.2911)">
                                <g
                                   style="fill:#4d4d4d;fill-opacity:1;stroke:none"
                                   transform="matrix(0.11770342,0,0,0.11770342,-131.56937,724.00624)"
                                   id="g6727-5">
                                <g
                                   style="fill:#4d4d4d;fill-opacity:1;stroke:none"
                                   transform="matrix(2.4024201,0,0,2.4905961,-437.80756,236.72167)"
                                   id="g4209">
                                <g
                                   style="fill:#4d4d4d;fill-opacity:1;stroke:none"
                                   id="g4169">
                                <path
                                   style="fill:#4d4d4d;fill-opacity:1;stroke:none"
                                   inkscape:connector-curvature="0"
                                   d="M 3.18,201.694 41.49,231.627 5.433,300.7 c -18.028,31.851 12.943,62.878 32.676,73.679 19.426,10.632 49.577,11.896 77.746,11.513 l 50.704,-82.889 38.31,20.722 L 138.39,200.544 3.18,201.694 Z M 8.813,370.78 91.066,522.742 c 16.526,21.105 47.7,26.094 80,25.327 l 86.76,0 0,-143.903 L 93.32,403.015 C 67.781,404.548 34.353,399.176 8.813,370.78 Z M 526.309,90.732 481.557,109.727 438.624,44.705 C 419.508,13.496 377.354,25.541 358.342,37.564 339.626,49.4 323.902,75.158 310.581,99.981 l 47.914,84.532 -36.697,23.46 139.966,1.576 64.545,-118.817 z M 375.692,13.686 202.906,11.954 C 176.435,16.175 156.958,41.021 141.97,69.645 L 99.908,145.527 225.769,215.293 306.53,71.97 c 11.039,-23.083 31.944,-49.714 69.162,-58.284 z m 7.516,586.36 5.082,-48.351 77.685,-6.025 c 36.563,-1.59 46.465,-44.297 45.167,-66.755 -1.277,-22.108 -16.184,-48.348 -31.437,-72.033 l -97.162,0.925 -2.729,-43.47 -69.235,121.653 72.629,114.056 z m 140.407,-94.379 85.283,-150.281 c 9.142,-25.199 -3.146,-54.28 -20.915,-81.266 L 542.007,200.543 419.97,276.8 506.169,416.92 c 14.837,20.845 27.994,52.039 17.446,88.747 z"
                                   id="path4171" />
                                </g>
                                <g
                                   style="fill:#4d4d4d;fill-opacity:1;stroke:none"
                                   id="g4173" />
                                <g
                                   style="fill:#4d4d4d;fill-opacity:1;stroke:none"
                                   id="g4175" />
                                <g
                                   style="fill:#4d4d4d;fill-opacity:1;stroke:none"
                                   id="g4177" />
                                <g
                                   style="fill:#4d4d4d;fill-opacity:1;stroke:none"
                                   id="g4179" />
                                <g
                                   style="fill:#4d4d4d;fill-opacity:1;stroke:none"
                                   id="g4181" />
                                <g
                                   style="fill:#4d4d4d;fill-opacity:1;stroke:none"
                                   id="g4183" />
                                <g
                                   style="fill:#4d4d4d;fill-opacity:1;stroke:none"
                                   id="g4185" />
                                <g
                                   style="fill:#4d4d4d;fill-opacity:1;stroke:none"
                                   id="g4187-1" />
                                <g
                                   style="fill:#4d4d4d;fill-opacity:1;stroke:none"
                                   id="g4189" />
                                <g
                                   style="fill:#4d4d4d;fill-opacity:1;stroke:none"
                                   id="g4191" />
                                <g
                                   style="fill:#4d4d4d;fill-opacity:1;stroke:none"
                                   id="g4193" />
                                <g
                                   style="fill:#4d4d4d;fill-opacity:1;stroke:none"
                                   id="g4195" />
                                <g
                                   style="fill:#4d4d4d;fill-opacity:1;stroke:none"
                                   id="g4197" />
                                <g
                                   style="fill:#4d4d4d;fill-opacity:1;stroke:none"
                                   id="g4199" />
                                <g
                                   style="fill:#4d4d4d;fill-opacity:1;stroke:none"
                                   id="g4201" />
                                </g>
                                </g>
                                </g>
                                </g>
                                </g>
                                </g>
                                </g>
                                </g>
                                </g>
                                </g>
                                </g>
                                </g>
                                </g>
                              </g>
                            </g>
                          </g>
                        </g>
                      </g>
                    </g>
                  </g>
                </g>
              </g>
            </g>
          </g>
        </g>
      </g>
    </g>
  </g>
</svg>
